X:186
T:Surry Reel, The
M:6/8
L:1/8
B:Thompson's Compleat Collection of 200 Favourite Country Dances, vol. 3 (London, 1773)
Z:Transcribed and edited by Flynn Titford-Mock, 2007
Z:abc's:AK/Fiddler's Companion
K:F
c | ABc cAc | dBd c2A | BdB AcA | GAG G2B | ABc cAc | dBd c2A | Acf dge | (f3 f2) :|
|: g | efg gec | bag a2g | fed ed^c | (d3 d2)e | fcA Bcd | cAF E2F | GBA GFE | (F3 F2) :|

